icons/source/functional/fullscreen.svg

<?xml version="1.0" encoding="utf-8"?>
<!-- Generated by IcoMoon.io -->
<!DOCTYPE svg PUBLIC "-//W3C//DTD SVG 1.1//EN" "http://www.w3.org/Graphics/SVG/1.1/DTD/svg11.dtd">
<svg version="1.1" xmlns="http://www.w3.org/2000/svg" xmlns:xlink="http://www.w3.org/1999/xlink" width="32" height="32" viewBox="0 0 32 32">
<path d="M29.562 25.82v-5.812h1.938v7.75h-7.75v-1.938h5.812zM23.75 4.507h7.75v7.75h-1.938v-5.812h-5.812v-1.938zM2.438 20.007v5.812h5.812v1.938h-7.75v-7.75h1.938zM2.438 6.444v5.813h-1.938v-7.75h7.75v1.937h-5.812zM4.375 22.913v-13.562h23.25v13.562h-23.25z"></path>
</svg>

<svg xmlns="http://www.w3.org/2000/svg" width="32" height="32" viewBox="0 0 32 32"><path d="M29.562 25.82v-5.812H31.5v7.75h-7.75V25.82h5.812zM23.75 4.507h7.75v7.75h-1.938V6.445H23.75V4.507zm-21.312 15.5v5.812H8.25v1.938H.5v-7.75h1.938zm0-13.563v5.813H.5v-7.75h7.75v1.937H2.438zm1.937 16.469V9.351h23.25v13.562H4.375z"/></svg>
